Obsidian/apps/96/pocket.svg

<svg height="96" width="96" xmlns="http://www.w3.org/2000/svg" xmlns:xlink="http://www.w3.org/1999/xlink"><linearGradient id="a"><stop offset="0" stop-color="#fefefe"/><stop offset="1" stop-color="#fefefe" stop-opacity="0"/></linearGradient><linearGradient id="b" gradientUnits="userSpaceOnUse" x1="36.357143" x2="36.357143" xlink:href="#a" y1="6" y2="63.893143"/><radialGradient id="c" cx="48" cy="90.171875" gradientTransform="matrix(1.1573129 0 0 .99590774 -7.551021 .197132)" gradientUnits="userSpaceOnUse" r="42" xlink:href="#a"/><linearGradient id="d" gradientUnits="userSpaceOnUse" x1="48" x2="48" y1="-6" y2="-128"><stop offset="0" stop-color="#f0f0f0"/><stop offset="1" stop-color="#c6c6c6"/></linearGradient><linearGradient id="e" gradientTransform="matrix(1.0058652 0 0 .994169 100 0)" gradientUnits="userSpaceOnUse" x1="45.447727" x2="45.447727" y1="92.539597" y2="7.01654"><stop offset="0"/><stop offset="1" stop-opacity=".588235"/></linearGradient><linearGradient id="f" gradientTransform="matrix(1.0238095 0 0 -1.0119048 -1.142857 98.071429)" gradientUnits="userSpaceOnUse" x1="32.251034" x2="32.251034" xlink:href="#e" y1="6.131708" y2="90.238609"/><linearGradient id="g" gradientTransform="matrix(1.0238095 0 0 1.0119048 -1.142857 -98.071429)" gradientUnits="userSpaceOnUse" x1="32.251034" x2="32.251034" xlink:href="#e" y1="6.131708" y2="90.238609"/><linearGradient id="h" gradientTransform="translate(0 -97)" gradientUnits="userSpaceOnUse" x1="32.251034" x2="32.251034" xlink:href="#e" y1="6.131708" y2="90.238609"/><g fill="url(#f)"><path d="m12 95.03125c-5.5110903 0-10.03125-4.52016-10.03125-10.03125v-71c0-5.5110902 4.5201598-10.03125 10.03125-10.03125h72c5.51109 0 10.03125 4.5201597 10.03125 10.03125v71c0 5.51109-4.52016 10.03125-10.03125 10.03125z" opacity=".08"/><path d="m12 94.03125c-4.971633 0-9.03125-4.059617-9.03125-9.03125v-71c0-4.9716329 4.0596171-9.03125 9.03125-9.03125h72c4.971633 0 9.03125 4.059617 9.03125 9.03125v71c0 4.971633-4.059617 9.03125-9.03125 9.03125z" opacity=".1"/><path d="m12 93c-4.4091333 0-8-3.590867-8-8v-71c0-4.4091333 3.5908667-8 8-8h72c4.409133 0 8 3.5908667 8 8v71c0 4.409133-3.590867 8-8 8z" opacity=".2"/></g><rect fill="url(#g)" height="85" opacity=".3" rx="7" transform="scale(1 -1)" width="86" x="5" y="-92"/><rect fill="url(#h)" height="84" opacity=".45" rx="6" transform="scale(1 -1)" width="84" x="6" y="-91"/><rect fill="url(#d)" height="84" rx="6" transform="scale(1 -1)" width="84" x="6" y="-90"/><path d="m12 6c-3.324 0-5.999999 2.676-5.999999 6l.000289 9h21.00007l-.00014-15z" fill="#44e5a3"/><path d="m83.980869 5.9745801c3.324 0 5.999999 2.6760002 5.999999 5.9999999l-.000289 9h-21.00007l.00014-14.9999999z" fill="#ffca5f"/><path d="m68.980649 5.9745801.00002 15.0000009h-21.00007l.00014-15.0000009z" fill="#e23f3f"/><path d="m47.980739 5.9745801.00002 15.0000019h-21.00007l.00014-15.0000019z" fill="#42baff"/><path d="m12 6c-3.324 0-6 2.676-6 6v2 68 2c0 .334721.04135.6507.09375.96875.0487.295596.09704.596915.1875.875.00988.03038.020892.0636.03125.09375.098865.287771.2348802.547452.375.8125.1445918.273507.3156161.535615.5.78125s.3737765.473472.59375.6875c.439947.428056.94291.814526 1.5 1.09375.278545.139612.5734731.246947.875.34375-.2562018-.100222-.4867109-.236272-.71875-.375-.00741-.0044-.023866.0045-.03125 0-.031933-.0193-.062293-.04251-.09375-.0625-.120395-.0767-.2310226-.163513-.34375-.25-.1061728-.0808-.2132809-.161112-.3125-.25-.1779299-.161433-.3474596-.345388-.5-.53125-.1075789-.130255-.2183939-.265285-.3125-.40625-.025089-.03838-.038446-.08587-.0625-.125-.064763-.103032-.1302275-.204517-.1875-.3125-.1010083-.194706-.2056748-.415701-.28125-.625-.00796-.02181-.023589-.04055-.03125-.0625-.0318251-.09195-.0358045-.186831-.0625-.28125-.0303323-.106618-.0703894-.203031-.09375-.3125-.0728786-.341512-.125-.698205-.125-1.0625v-2-68-2c0-2.781848 2.2181517-5 5-5h2 68 2c2.781848 0 5 2.218152 5 5v2 68 2c0 .364295-.05212.720988-.125 1.0625-.04415.206893-.08838.397658-.15625.59375-.0077.02195-.0233.04069-.03125.0625-.06274.173739-.138383.367449-.21875.53125-.04158.0828-.07904.169954-.125.25-.0546.09721-.126774.18835-.1875.28125-.09411.140965-.204921.275995-.3125.40625-.143174.17445-.303141.346998-.46875.5-.01117.0102-.01998.02115-.03125.03125-.138386.125556-.285091.234436-.4375.34375-.102571.07315-.204318.153364-.3125.21875-.0074.0045-.02384-.0044-.03125 0-.232039.138728-.462548.274778-.71875.375.301527-.0968.596455-.204138.875-.34375.55709-.279224 1.060053-.665694 1.5-1.09375.219973-.214028.409366-.441865.59375-.6875s.355408-.507743.5-.78125c.14012-.265048.276135-.524729.375-.8125.01041-.03078.02133-.06274.03125-.09375.09046-.278085.1388-.579404.1875-.875.0524-.31805.09375-.634029.09375-.96875v-2-68-2c0-3.324-2.676-6-6-6z" fill="url(#b)" opacity=".5"/><path d="m12 90c-3.324 0-6-2.676-6-6v-2-68-2c0-.334721.04135-.6507.09375-.96875.0487-.295596.09704-.596915.1875-.875.00988-.03038.020892-.0636.03125-.09375.098865-.287771.2348802-.547452.375-.8125.1445918-.273507.3156161-.535615.5-.78125s.3737765-.473472.59375-.6875c.439947-.428056.94291-.814526 1.5-1.09375.278545-.139612.5734731-.246947.875-.34375-.2562018.100222-.4867109.236272-.71875.375-.00741.0044-.023866-.0045-.03125 0-.031933.0193-.062293.04251-.09375.0625-.120395.0767-.2310226.163513-.34375.25-.1061728.0808-.2132809.161112-.3125.25-.1779299.161433-.3474596.345388-.5.53125-.1075789.130255-.2183939.265285-.3125.40625-.025089.03838-.038446.08587-.0625.125-.064763.103032-.1302275.204517-.1875.3125-.1010083.194706-.2056748.415701-.28125.625-.00796.02181-.023589.04055-.03125.0625-.0318251.09195-.0358045.186831-.0625.28125-.0303323.106618-.0703894.203031-.09375.3125-.0728786.341512-.125.698205-.125 1.0625v2 68 2c0 2.781848 2.2181517 5 5 5h2 68 2c2.781848 0 5-2.218152 5-5v-2-68-2c0-.364295-.05212-.720988-.125-1.0625-.04415-.206893-.08838-.397658-.15625-.59375-.0077-.02195-.0233-.04069-.03125-.0625-.06274-.173739-.138383-.367449-.21875-.53125-.04158-.0828-.07904-.169954-.125-.25-.0546-.09721-.126774-.18835-.1875-.28125-.09411-.140965-.204921-.275995-.3125-.40625-.143174-.17445-.303141-.346998-.46875-.5-.01117-.0102-.01998-.02115-.03125-.03125-.138386-.125556-.285091-.234436-.4375-.34375-.102571-.07315-.204318-.153364-.3125-.21875-.0074-.0045-.02384.0044-.03125 0-.232039-.138728-.462548-.274778-.71875-.375.301527.0968.596455.204138.875.34375.55709.279224 1.060053.665694 1.5 1.09375.219973.214028.409366.441865.59375.6875s.355408.507743.5.78125c.14012.265048.276135.524729.375.8125.01041.03078.02133.06274.03125.09375.09046.278085.1388.579404.1875.875.0524.31805.09375.634029.09375.96875v2 68 2c0 3.324-2.676 6-6 6z" fill="url(#c)" opacity=".3"/><path d="m43.628348 77.405391c-9.07405-1.58922-16.81436-9.06951-18.33807-17.72203-.43345-2.46135-.70017-14.70103-.39016-17.90369.0737-.76082.24995-1.6134.39179-1.89461.51421-1.01952 1.46402-1.80637 2.55983-2.12065.25244-.0724 9.05637-.13308 19.56428-.13484 20.90129-.004 19.87518-.0458 21.22122.87505.39627.27111.75588.71386 1.03815 1.2782l.43186.86341.005 7.92742c.005 8.5082-.0871 10.10006-.72911 12.54384-1.5531 5.91179-5.68239 10.96828-11.44178 14.01098-1.90681 1.00737-4.70792 1.95918-6.71731 2.28253-1.81595.29221-5.91255.28919-7.59576-.006zm5.22913-12.27423c1.00144-.51851 11.50005-10.55824 12.08554-11.55731.47359-.80812.53718-1.94513.15016-2.68476-.36161-.69106-1.17677-1.39793-1.91073-1.65688-1.6829-.59376-2.14836-.30649-6.89703 4.25675-2.15773 2.07348-4.12068 3.92995-4.36211 4.1255l-.43895.35554-2.19313-2.09858c-4.69201-4.48974-6.68779-6.28758-7.319-6.59314-1.49306-.72278-3.65427.30727-4.11341 1.96048-.39842 1.43456-.0917 2.12821 1.78036 4.02608 2.02854 2.05653 9.2343 8.89083 9.88378 9.37428 1.10104.81956 2.34689 1.0034 3.33452.49204z" fill="#e23f3f" stroke-width=".151569"/></svg>

<?xml version="1.0" encoding="UTF-8" standalone="no"?>
<svg
   xmlns:dc="http://purl.org/dc/elements/1.1/"
   xmlns:cc="http://creativecommons.org/ns#"
   xmlns:rdf="http://www.w3.org/1999/02/22-rdf-syntax-ns#"
   xmlns:svg="http://www.w3.org/2000/svg"
   xmlns="http://www.w3.org/2000/svg"
   xmlns:xlink="http://www.w3.org/1999/xlink"
   id="svg2408"
   height="96"
   width="96"
   version="1.0">
  <defs
     id="defs2410">
    <linearGradient
       id="linearGradient899">
      <stop
         style="stop-color:#c8c8c8;stop-opacity:1"
         offset="0"
         id="stop895" />
      <stop
         style="stop-color:#a0a0a0;stop-opacity:0.98823529"
         offset="1"
         id="stop897" />
    </linearGradient>
    <linearGradient
       id="linearGradient867">
      <stop
         id="stop863"
         offset="0"
         style="stop-color:#a0a0a0;stop-opacity:1" />
      <stop
         id="stop865"
         offset="1"
         style="stop-color:#f0f0f0;stop-opacity:0.98823529" />
    </linearGradient>
    <linearGradient
       id="linearGradient4280">
      <stop
         offset="0"
         style="stop-color:#f0f0f0;stop-opacity:1"
         id="stop4284" />
      <stop
         offset="1"
         style="stop-color:#c6c6c6;stop-opacity:1"
         id="stop4282" />
    </linearGradient>
    <linearGradient
       gradientTransform="scale(1.0058652,0.994169)"
       gradientUnits="userSpaceOnUse"
       id="ButtonShadow"
       y2="7.0165396"
       x2="45.447727"
       y1="92.539597"
       x1="45.447727">
      <stop
         offset="0"
         style="stop-color:#000000;stop-opacity:1"
         id="stop3750" />
      <stop
         offset="1"
         style="stop-color:#000000;stop-opacity:0.58823532"
         id="stop3752" />
    </linearGradient>
    <linearGradient
       id="linearGradient3737">
      <stop
         offset="0"
         style="stop-color:#fefefe;stop-opacity:1"
         id="stop3739" />
      <stop
         offset="1"
         style="stop-color:#fefefe;stop-opacity:0"
         id="stop3741" />
    </linearGradient>
    <filter
       id="filter3174"
       color-interpolation-filters="sRGB">
      <feGaussianBlur
         stdDeviation="1.71"
         id="feGaussianBlur3176" />
    </filter>
    <linearGradient
       gradientUnits="userSpaceOnUse"
       xlink:href="#linearGradient3737"
       id="linearGradient3188"
       y2="63.893143"
       x2="36.357143"
       y1="6"
       x1="36.357143" />
    <radialGradient
       gradientTransform="matrix(1.1573129,0,0,0.99590774,-7.5510206,0.19713193)"
       gradientUnits="userSpaceOnUse"
       xlink:href="#linearGradient3737"
       id="radialGradient3619"
       fy="90.171875"
       fx="48"
       r="42"
       cy="90.171875"
       cx="48" />
    <linearGradient
       gradientTransform="translate(0,-96)"
       gradientUnits="userSpaceOnUse"
       xlink:href="#linearGradient4280"
       id="linearGradient3617"
       y2="-32"
       x2="48"
       y1="90"
       x1="48" />
    <linearGradient
       gradientTransform="matrix(1.0058652,0,0,0.994169,100,0)"
       gradientUnits="userSpaceOnUse"
       id="ButtonShadow-0"
       y2="7.0165396"
       x2="45.447727"
       y1="92.539597"
       x1="45.447727">
      <stop
         offset="0"
         style="stop-color:#000000;stop-opacity:1"
         id="stop3750-8" />
      <stop
         offset="1"
         style="stop-color:#000000;stop-opacity:0.58823532"
         id="stop3752-5" />
    </linearGradient>
    <linearGradient
       gradientTransform="matrix(1.0238095,0,0,-1.0119048,-1.1428571,98.071429)"
       gradientUnits="userSpaceOnUse"
       xlink:href="#ButtonShadow-0"
       id="linearGradient3780"
       y2="90.238609"
       x2="32.251034"
       y1="6.1317081"
       x1="32.251034" />
    <linearGradient
       gradientTransform="matrix(1.0238095,0,0,-1.0119048,-1.1428571,98.071429)"
       gradientUnits="userSpaceOnUse"
       xlink:href="#ButtonShadow-0"
       id="linearGradient3772"
       y2="90.238609"
       x2="32.251034"
       y1="6.1317081"
       x1="32.251034" />
    <linearGradient
       gradientTransform="matrix(1.0238095,0,0,1.0119048,-1.1428571,-98.071429)"
       gradientUnits="userSpaceOnUse"
       xlink:href="#ButtonShadow-0"
       id="linearGradient3725"
       y2="90.238609"
       x2="32.251034"
       y1="6.1317081"
       x1="32.251034" />
    <linearGradient
       gradientTransform="translate(0,-97)"
       gradientUnits="userSpaceOnUse"
       xlink:href="#ButtonShadow-0"
       id="linearGradient3721"
       y2="90.238609"
       x2="32.251034"
       y1="6.1317081"
       x1="32.251034" />
    <linearGradient
       gradientTransform="matrix(1.0238095,0,0,-1.0119048,-1.1428571,98.071429)"
       gradientUnits="userSpaceOnUse"
       xlink:href="#ButtonShadow-0"
       id="linearGradient2918"
       y2="90.238609"
       x2="32.251034"
       y1="6.1317081"
       x1="32.251034" />
    <linearGradient
       id="linearGradient4776">
      <stop
         id="stop4778"
         offset="0"
         style="stop-color:#1d99f3;stop-opacity:1" />
      <stop
         style="stop-color:#2972a7;stop-opacity:1"
         offset="1"
         id="stop4780" />
    </linearGradient>
    <linearGradient
       id="linearGradient5617">
      <stop
         style="stop-color:#9559b6;stop-opacity:1;"
         offset="0"
         id="stop5619" />
      <stop
         id="stop5621"
         offset="1"
         style="stop-color:#8e44ad;stop-opacity:1;" />
    </linearGradient>
    <linearGradient
       gradientTransform="matrix(1.1625301,0,0,1.1389522,-14.194804,-8.637483)"
       gradientUnits="userSpaceOnUse"
       y2="61.965019"
       x2="68.9282"
       y1="24.340015"
       x1="68.934395"
       id="linearGradient869"
       xlink:href="#linearGradient867" />
    <linearGradient
       gradientTransform="matrix(1.2838771,0,0,1.2528475,-20.865473,-14.411732)"
       gradientUnits="userSpaceOnUse"
       y2="61.965019"
       x2="68.9282"
       y1="24.340015"
       x1="68.934395"
       id="linearGradient869-3"
       xlink:href="#linearGradient899" />
    <linearGradient
       gradientTransform="translate(-0.00275081,-1.0129998)"
       xlink:href="#linearGradient3912"
       id="linearGradient3937"
       gradientUnits="userSpaceOnUse"
       x1="24"
       y1="12"
       x2="24"
       y2="36" />
    <linearGradient
       id="linearGradient3912">
      <stop
         style="stop-color:#5d5d5d;stop-opacity:1;"
         offset="0"
         id="stop3914" />
      <stop
         style="stop-color:#989898;stop-opacity:1;"
         offset="1"
         id="stop3916" />
    </linearGradient>
    <linearGradient
       gradientUnits="userSpaceOnUse"
       xlink:href="#linearGradient3737"
       id="linearGradient3188-3"
       y2="63.893143"
       x2="36.357143"
       y1="6"
       x1="36.357143"
       gradientTransform="translate(93.762711,7.0871291)" />
  </defs>
  <metadata
     id="metadata2413">
    <rdf:RDF>
      <cc:Work
         rdf:about="">
        <dc:format>image/svg+xml</dc:format>
        <dc:type
           rdf:resource="http://purl.org/dc/dcmitype/StillImage" />
        <dc:title></dc:title>
      </cc:Work>
    </rdf:RDF>
  </metadata>
  <g
     style="display:none"
     id="layer2">
    <rect
       style="opacity:0.9;fill:url(#ButtonShadow);fill-opacity:1;fill-rule:nonzero;stroke:none;filter:url(#filter3174)"
       id="rect3745"
       y="7"
       x="5"
       ry="6"
       rx="6"
       height="85"
       width="86" />
  </g>
  <path
     d="M 12,95.03125 C 6.4889097,95.03125 1.96875,90.51109 1.96875,85 l 0,-71 C 1.96875,8.4889098 6.4889098,3.96875 12,3.96875 l 72,0 c 5.51109,0 10.03125,4.5201597 10.03125,10.03125 l 0,71 c 0,5.51109 -4.52016,10.03125 -10.03125,10.03125 l -72,0 z"
     id="path3786"
     style="display:inline;opacity:0.07999998;fill:url(#linearGradient2918);fill-opacity:1;fill-rule:nonzero;stroke:none" />
  <path
     d="M 12,94.03125 C 7.028367,94.03125 2.96875,89.971633 2.96875,85 l 0,-71 C 2.96875,9.0283671 7.0283671,4.96875 12,4.96875 l 72,0 c 4.971633,0 9.03125,4.059617 9.03125,9.03125 l 0,71 c 0,4.971633 -4.059617,9.03125 -9.03125,9.03125 l -72,0 z"
     id="path3778-9"
     style="display:inline;opacity:0.1;fill:url(#linearGradient3780);fill-opacity:1;fill-rule:nonzero;stroke:none" />
  <path
     d="M 12,93 C 7.5908667,93 4,89.409133 4,85 L 4,14 C 4,9.5908667 7.5908667,6 12,6 l 72,0 c 4.409133,0 8,3.5908667 8,8 l 0,71 c 0,4.409133 -3.590867,8 -8,8 l -72,0 z"
     id="path3770"
     style="display:inline;opacity:0.2;fill:url(#linearGradient3772);fill-opacity:1;fill-rule:nonzero;stroke:none" />
  <rect
     width="86"
     height="85"
     rx="7"
     ry="7"
     x="5"
     y="-92"
     transform="scale(1,-1)"
     id="rect3723"
     style="display:inline;opacity:0.3;fill:url(#linearGradient3725);fill-opacity:1;fill-rule:nonzero;stroke:none" />
  <rect
     width="84"
     height="84"
     rx="6"
     ry="6"
     x="6"
     y="-91"
     transform="scale(1,-1)"
     id="rect3716"
     style="display:inline;opacity:0.45;fill:url(#linearGradient3721);fill-opacity:1;fill-rule:nonzero;stroke:none" />
  <rect
     width="84"
     height="84"
     rx="6"
     ry="6"
     x="6"
     y="-90"
     transform="scale(1,-1)"
     id="rect2419"
     style="opacity:1;fill:url(#linearGradient3617);fill-opacity:1;fill-rule:nonzero;stroke:none" />
  <path
     d="M 12,6 C 8.676,6 6.000001,8.676 6.000001,12 l 2.89e-4,9 H 27.00036 L 27.00022,6 Z"
     id="rect3728-5"
     style="opacity:1;fill:#44e5a3;fill-opacity:1;fill-rule:nonzero;stroke:none" />
  <path
     d="m 83.980869,5.9745801 c 3.324,0 5.999999,2.6760002 5.999999,5.9999999 l -2.89e-4,9 h -21.00007 l 1.4e-4,-14.9999999 z"
     id="rect3728-5-2"
     style="opacity:1;fill:#ffca5f;fill-opacity:1;fill-rule:nonzero;stroke:none" />
  <path
     d="m 68.980649,5.9745801 2e-5,15.0000009 h -21.00007 l 1.4e-4,-15.0000009 z"
     id="rect3728-5-2-9"
     style="opacity:1;fill:#e23f3f;fill-opacity:1;fill-rule:nonzero;stroke:none" />
  <path
     d="m 47.980739,5.9745801 2e-5,15.0000019 h -21.00007 l 1.4e-4,-15.0000019 z"
     id="rect3728-5-2-9-1"
     style="opacity:1;fill:#42baff;fill-opacity:1;fill-rule:nonzero;stroke:none" />
  <path
     d="M 12,6 C 8.676,6 6,8.676 6,12 l 0,2 0,68 0,2 c 0,0.334721 0.04135,0.6507 0.09375,0.96875 0.0487,0.295596 0.09704,0.596915 0.1875,0.875 0.00988,0.03038 0.020892,0.0636 0.03125,0.09375 0.098865,0.287771 0.2348802,0.547452 0.375,0.8125 0.1445918,0.273507 0.3156161,0.535615 0.5,0.78125 0.1843839,0.245635 0.3737765,0.473472 0.59375,0.6875 0.439947,0.428056 0.94291,0.814526 1.5,1.09375 0.278545,0.139612 0.5734731,0.246947 0.875,0.34375 -0.2562018,-0.100222 -0.4867109,-0.236272 -0.71875,-0.375 -0.00741,-0.0044 -0.023866,0.0045 -0.03125,0 -0.031933,-0.0193 -0.062293,-0.04251 -0.09375,-0.0625 -0.120395,-0.0767 -0.2310226,-0.163513 -0.34375,-0.25 -0.1061728,-0.0808 -0.2132809,-0.161112 -0.3125,-0.25 C 8.4783201,88.557317 8.3087904,88.373362 8.15625,88.1875 8.0486711,88.057245 7.9378561,87.922215 7.84375,87.78125 7.818661,87.74287 7.805304,87.69538 7.78125,87.65625 7.716487,87.553218 7.6510225,87.451733 7.59375,87.34375 7.4927417,87.149044 7.3880752,86.928049 7.3125,86.71875 7.30454,86.69694 7.288911,86.6782 7.28125,86.65625 7.2494249,86.5643 7.2454455,86.469419 7.21875,86.375 7.1884177,86.268382 7.1483606,86.171969 7.125,86.0625 7.0521214,85.720988 7,85.364295 7,85 L 7,83 7,15 7,13 C 7,10.218152 9.2181517,8 12,8 l 2,0 68,0 2,0 c 2.781848,0 5,2.218152 5,5 l 0,2 0,68 0,2 c 0,0.364295 -0.05212,0.720988 -0.125,1.0625 -0.04415,0.206893 -0.08838,0.397658 -0.15625,0.59375 -0.0077,0.02195 -0.0233,0.04069 -0.03125,0.0625 -0.06274,0.173739 -0.138383,0.367449 -0.21875,0.53125 -0.04158,0.0828 -0.07904,0.169954 -0.125,0.25 -0.0546,0.09721 -0.126774,0.18835 -0.1875,0.28125 -0.09411,0.140965 -0.204921,0.275995 -0.3125,0.40625 -0.143174,0.17445 -0.303141,0.346998 -0.46875,0.5 -0.01117,0.0102 -0.01998,0.02115 -0.03125,0.03125 -0.138386,0.125556 -0.285091,0.234436 -0.4375,0.34375 -0.102571,0.07315 -0.204318,0.153364 -0.3125,0.21875 -0.0074,0.0045 -0.02384,-0.0044 -0.03125,0 -0.232039,0.138728 -0.462548,0.274778 -0.71875,0.375 0.301527,-0.0968 0.596455,-0.204138 0.875,-0.34375 0.55709,-0.279224 1.060053,-0.665694 1.5,-1.09375 0.219973,-0.214028 0.409366,-0.441865 0.59375,-0.6875 0.184384,-0.245635 0.355408,-0.507743 0.5,-0.78125 0.14012,-0.265048 0.276135,-0.524729 0.375,-0.8125 0.01041,-0.03078 0.02133,-0.06274 0.03125,-0.09375 0.09046,-0.278085 0.1388,-0.579404 0.1875,-0.875 C 89.95865,84.6507 90,84.334721 90,84 l 0,-2 0,-68 0,-2 C 90,8.676 87.324,6 84,6 L 12,6 Z"
     id="rect3728"
     style="opacity:0.5;fill:url(#linearGradient3188);fill-opacity:1;fill-rule:nonzero;stroke:none" />
  <path
     d="M 12,90 C 8.676,90 6,87.324 6,84 L 6,82 6,14 6,12 c 0,-0.334721 0.04135,-0.6507 0.09375,-0.96875 0.0487,-0.295596 0.09704,-0.596915 0.1875,-0.875 C 6.29113,10.12587 6.302142,10.09265 6.3125,10.0625 6.411365,9.774729 6.5473802,9.515048 6.6875,9.25 6.8320918,8.976493 7.0031161,8.714385 7.1875,8.46875 7.3718839,8.223115 7.5612765,7.995278 7.78125,7.78125 8.221197,7.353194 8.72416,6.966724 9.28125,6.6875 9.559795,6.547888 9.8547231,6.440553 10.15625,6.34375 9.9000482,6.443972 9.6695391,6.580022 9.4375,6.71875 c -0.00741,0.0044 -0.023866,-0.0045 -0.03125,0 -0.031933,0.0193 -0.062293,0.04251 -0.09375,0.0625 -0.120395,0.0767 -0.2310226,0.163513 -0.34375,0.25 -0.1061728,0.0808 -0.2132809,0.161112 -0.3125,0.25 C 8.4783201,7.442683 8.3087904,7.626638 8.15625,7.8125 8.0486711,7.942755 7.9378561,8.077785 7.84375,8.21875 7.818661,8.25713 7.805304,8.30462 7.78125,8.34375 7.716487,8.446782 7.6510225,8.548267 7.59375,8.65625 7.4927417,8.850956 7.3880752,9.071951 7.3125,9.28125 7.30454,9.30306 7.288911,9.3218 7.28125,9.34375 7.2494249,9.4357 7.2454455,9.530581 7.21875,9.625 7.1884177,9.731618 7.1483606,9.828031 7.125,9.9375 7.0521214,10.279012 7,10.635705 7,11 l 0,2 0,68 0,2 c 0,2.781848 2.2181517,5 5,5 l 2,0 68,0 2,0 c 2.781848,0 5,-2.218152 5,-5 l 0,-2 0,-68 0,-2 C 89,10.635705 88.94788,10.279012 88.875,9.9375 88.83085,9.730607 88.78662,9.539842 88.71875,9.34375 88.71105,9.3218 88.69545,9.30306 88.6875,9.28125 88.62476,9.107511 88.549117,8.913801 88.46875,8.75 88.42717,8.6672 88.38971,8.580046 88.34375,8.5 88.28915,8.40279 88.216976,8.31165 88.15625,8.21875 88.06214,8.077785 87.951329,7.942755 87.84375,7.8125 87.700576,7.63805 87.540609,7.465502 87.375,7.3125 87.36383,7.3023 87.35502,7.29135 87.34375,7.28125 87.205364,7.155694 87.058659,7.046814 86.90625,6.9375 86.803679,6.86435 86.701932,6.784136 86.59375,6.71875 c -0.0074,-0.0045 -0.02384,0.0044 -0.03125,0 -0.232039,-0.138728 -0.462548,-0.274778 -0.71875,-0.375 0.301527,0.0968 0.596455,0.204138 0.875,0.34375 0.55709,0.279224 1.060053,0.665694 1.5,1.09375 0.219973,0.214028 0.409366,0.441865 0.59375,0.6875 0.184384,0.245635 0.355408,0.507743 0.5,0.78125 0.14012,0.265048 0.276135,0.524729 0.375,0.8125 0.01041,0.03078 0.02133,0.06274 0.03125,0.09375 0.09046,0.278085 0.1388,0.579404 0.1875,0.875 C 89.95865,11.3493 90,11.665279 90,12 l 0,2 0,68 0,2 c 0,3.324 -2.676,6 -6,6 l -72,0 z"
     id="path3615"
     style="opacity:0.3;fill:url(#radialGradient3619);fill-opacity:1;fill-rule:nonzero;stroke:none" />
  <path
     id="path4547"
     d="m 43.628348,77.405391 c -9.07405,-1.58922 -16.81436,-9.06951 -18.33807,-17.72203 -0.43345,-2.46135 -0.70017,-14.70103 -0.39016,-17.90369 0.0737,-0.76082 0.24995,-1.6134 0.39179,-1.89461 0.51421,-1.01952 1.46402,-1.80637 2.55983,-2.12065 0.25244,-0.0724 9.05637,-0.13308 19.56428,-0.13484 20.90129,-0.004 19.87518,-0.0458 21.22122,0.87505 0.39627,0.27111 0.75588,0.71386 1.03815,1.2782 l 0.43186,0.86341 0.005,7.92742 c 0.005,8.5082 -0.0871,10.10006 -0.72911,12.54384 -1.5531,5.91179 -5.68239,10.96828 -11.44178,14.01098 -1.90681,1.00737 -4.70792,1.95918 -6.71731,2.28253 -1.81595,0.29221 -5.91255,0.28919 -7.59576,-0.006 z m 5.22913,-12.27423 c 1.00144,-0.51851 11.50005,-10.55824 12.08554,-11.55731 0.47359,-0.80812 0.53718,-1.94513 0.15016,-2.68476 -0.36161,-0.69106 -1.17677,-1.39793 -1.91073,-1.65688 -1.6829,-0.59376 -2.14836,-0.30649 -6.89703,4.25675 -2.15773,2.07348 -4.12068,3.92995 -4.36211,4.1255 l -0.43895,0.35554 -2.19313,-2.09858 c -4.69201,-4.48974 -6.68779,-6.28758 -7.319,-6.59314 -1.49306,-0.72278 -3.65427,0.30727 -4.11341,1.96048 -0.39842,1.43456 -0.0917,2.12821 1.78036,4.02608 2.02854,2.05653 9.2343,8.89083 9.88378,9.37428 1.10104,0.81956 2.34689,1.0034 3.33452,0.49204 z"
     style="fill:#e23f3f;fill-opacity:1;stroke-width:0.15156905" />
</svg>
